!!!OTL: Graf und Nonne (Die Nonne) Einst stand ich auf hohen Felsen
!!!ARE: Europa, Mitteleuropa, Oesterreich, Niederoesterreich, Goggendorf
!!!YOR: 8, S. 56
!!    1910 aufgezeichnet (ca.)
!!!SCT: Q0155M
!!!YEM: Copyright 1995, estate of Helmut Schaffrath.
**kern
*ICvox
*Ivox
*M6/8
*k[b-e-]
*B-:
{8ff
=1
8.ff
16dd
8dd
8dd
8cc
8dd
=2
8ee-
8ee-
4.r}
{8gg
=3
4gg
8ee-
8ee-
8ff
8gg
=4
4.ff
4r}
{8ff
=5
8.ff
16dd
8dd
8.dd
16cc
8dd
=6
4ee-
8gg
4gg}
{8gg
=7
8ff
8gg
8ff
4ee-
8ee-
=8
4dd
4.r}
==
!!!AGN: Ballade, Standesunterschied, vergebliche Werbung, Liebe, Klage, Tod
!! Grundton taucht nicht auf ! Grundton in der eingestrichenen Oktave.
!!!ONB: ESAC (Essen Associative Code) Database: BALLADE
!!!AMT: compound duple
!!!AIN: vox
!!!EED: Helmut Schaffrath
!!!EEV: 1.0
*-
